src/lib/assets/inclusion-connect/logo-dora-ic.svg

<svg width="126" height="36" viewBox="0 0 126 36" fill="none" xmlns="http://www.w3.org/2000/svg">
<g clip-path="url(#clip0_463_9828)">
<path d="M0.300781 5.10024H15.7008C24.1008 5.10024 28.8008 9.00024 28.8008 15.9002C28.8008 22.9002 24.1008 26.7002 15.7008 26.7002H0.300781V5.10024ZM14.6008 21.4002C18.8008 21.4002 21.2008 19.4002 21.2008 15.9002C21.2008 12.4002 18.8008 10.4002 14.6008 10.4002H8.00078V21.4002H14.6008ZM105.501 5.10024H114.701L125.301 26.8002H117.101L115.401 23.0002H104.601L102.901 26.8002H94.7008L105.501 5.10024ZM113.901 18.5002L110.001 9.90024L106.101 18.5002H113.901ZM82.8008 23.7002L81.4008 21.4002C80.5008 20.1002 79.2008 19.5002 77.7008 19.5002H73.1008V26.7002H65.2008V5.00024H83.5008C89.3008 5.00024 92.7008 7.50024 92.7008 11.9002C92.7008 15.1002 90.4008 17.4002 86.4008 18.2002C87.1008 18.5002 87.8008 19.0002 88.3008 19.8002L89.8008 22.1002C90.2008 22.6002 90.7008 23.0002 91.6008 23.0002C92.1008 23.0002 92.8008 22.7002 93.2008 22.3002L94.5008 25.5002C93.3008 26.5002 90.9008 27.3002 88.9008 27.3002C85.7008 27.4002 84.0008 25.5002 82.8008 23.7002ZM81.1008 15.1002C83.4008 15.1002 84.7008 14.1002 84.7008 12.4002C84.7008 10.7002 83.4008 9.70024 81.1008 9.70024H73.1008V15.1002H81.1008Z" fill="#5B12EB"/>
<path d="M46.8004 0.000244141C38.0004 0.000244141 30.9004 7.10024 30.9004 15.9002C30.9004 29.0002 46.8004 36.0002 46.8004 36.0002C46.8004 36.0002 62.7004 29.0002 62.7004 15.9002C62.7004 7.10024 55.6004 0.000244141 46.8004 0.000244141ZM50.7004 19.8002C48.6004 21.9002 45.1004 21.9002 43.0004 19.8002C40.9004 17.7002 40.9004 14.2002 43.0004 12.1002C45.1004 10.0002 48.6004 10.0002 50.7004 12.1002C52.8004 14.2002 52.8004 17.6002 50.7004 19.8002Z" fill="#9C6FF4"/>
</g>
<defs>
<clipPath id="clip0_463_9828">
<rect width="126" height="36" fill="white" transform="translate(0 0.000244141)"/>
</clipPath>
</defs>
</svg>

<svg xmlns="http://www.w3.org/2000/svg" width="126" height="36" fill="none">
    <g clip-path="url(#a)">
        <path fill="#5B12EB" d="M.3 5.1h15.4c8.4 0 13.1 3.9 13.1 10.8 0 7-4.7 10.8-13.1 10.8H.3V5.1Zm14.3 16.3c4.2 0 6.6-2 6.6-5.5s-2.4-5.5-6.6-5.5H8v11h6.6Zm90.901-16.3h9.2l10.6 21.7h-8.2l-1.7-3.8h-10.8l-1.7 3.8h-8.2l10.8-21.7Zm8.4 13.4-3.9-8.6-3.9 8.6h7.8Zm-31.1 5.2-1.4-2.3c-.9-1.3-2.2-1.9-3.7-1.9h-4.6v7.2h-7.9V5h18.3c5.8 0 9.2 2.5 9.2 6.9 0 3.2-2.3 5.5-6.3 6.3.7.3 1.4.8 1.9 1.6l1.5 2.3c.4.5.9.9 1.8.9.5 0 1.2-.3 1.6-.7l1.3 3.2c-1.2 1-3.6 1.8-5.6 1.8-3.2.1-4.9-1.8-6.1-3.6Zm-1.7-8.6c2.3 0 3.6-1 3.6-2.7 0-1.7-1.3-2.7-3.6-2.7h-8v5.4h8Z"/>
        <path fill="#9C6FF4" d="M46.8 0C38 0 30.9 7.1 30.9 15.9 30.9 29 46.8 36 46.8 36s15.9-7 15.9-20.1C62.7 7.1 55.6 0 46.8 0Zm3.9 19.8c-2.1 2.1-5.6 2.1-7.7 0-2.1-2.1-2.1-5.6 0-7.7 2.1-2.1 5.6-2.1 7.7 0 2.1 2.1 2.1 5.5 0 7.7Z"/>
    </g>
    <defs>
        <clipPath id="a">
            <path fill="#fff" d="M0 0h126v36H0z"/>
        </clipPath>
    </defs>
</svg>
